X: 361
T: Will My Love Be True?
M:6/8
L:1/8
B:O'Neill's 361
N:"Moderate."
Z:Transcribed by Chris Falt, cfalt@trytel.com
K:G
(G/2E/2)|DEG GAB/2G/2|c3- c2(B/2c/2)|dBG GAB/2G/2|A3-A2(B/2c/2)|
dBG EGE|D3- D2(D/2E/2)|GAB/2G/2 AGG|G3- G2||
B|cdc BGE|D3- D2(D/2E/2)|G2G GBd|A3-A2(B/2c/2)|
d(c/2B/2)(A/2G/2) EGE|D3- D2(D/2E/2)|G>AB/2G/2 AGG|G3- G2||


